X:8
T: Green Grow the Rashes
N: HA008
O: Europa, Mitteleuropa, Deutschland
N: keine Vorschlge, Bindungen
M: 2/2
L: 1/16
K: Dm
A2 | F3FA3GAF3F2
A2 | GG3d3cd2G2z3
A | B3cB2d2c2A2F2
A2 | G3BA2G2F2D2z4 |
c4f3EFc3
c4 | d4g3^fg2d2
d3e | f3gf2d2c2A2F3
A | E3BA3GFD3D2

